!!!id: BC073
!!!page: 92-93
!!!COM: Anonyme (Folklore)
!!!LYR: (Folklore)
!!!PTL@@FR: Les 100 plus belles chansons
!!!OTL@@FR: Mon père n'avait fille que moi
!!!PUB: La Bonne Chanson, inc.
!!!YEM: On ne peut reproduire, enregistrer ou diffuser en tout ou en partie le présent ouvrage, sous quelque procédé que ce soit, électronique, mécanique, photographique, sonore, magnétique ou autre, sans avoir obtenu au préalable l'autorisation écrite de l'éditrice.
!!!PDT: 2011
!!!SMA:2012 Bibliothèque nationale du Québec; Biblothèque nationale du Canada
!!!AGN-Laforte: Chanson en laisse (avec refrain), 13:2(8), R(6+8+7)
!!!AGN-type: amour? moralité?
!!!AGN-rime: none
**kern	**text	**text	**text	**text	**text	**text	**text	**text	**text	**text	**text	**text	**text
*clefG2	*	*	*	*	*	*	*	*	*	*	*	*	*
*D:	*	*	*	*	*	*	*	*	*	*	*	*	*
*M2/4	*	*	*	*	*	*	*	*	*	*	*	*	*
*	*v:1	*v:2	*v:3	*v:4	*v:5	*v:6	*v:7	*v:8	*v:9	*v:10	*v:11	*v:12	*v:13
*	*pline:1	*pline:2r	*pline:3r	*pline:4r	*pline:5r	*pline:6r	*pline:7r	*pline:8r	*pline:9r	*pline:10r	*pline:11r	*pline:12r	*pline:13r
8dd	Mon	En-	Le	Il	Ma	Nen-	Car	Fil-	Mais	Ce	Les	Ils	Hé-
!!!v1: pèr' = père
8dd	pèr'	-cor	ma-	de-	mi-	-ni,	si	-le	qui,	se-	oi-	parl'nt	-las!
8cc	n'a-	sur	-ri-	-vint	-gno-	Mon-	mon	ba-	la	-rait	-seaux	fran-	que
=1||	=1||	=1||	=1||	=1||	=1||	=1||	=1||	=1||	=1||	=1||	=1||	=1||	=1||
*M3/4	*	*	*	*	*	*	*	*	*	*	*	*	*
4dd	-vait	la	-nier	a-	-nett[e],	-sieur,	pa-	-tue,	bell[e],	les	des	-çais,	le
(8aL	fil-	mer	qui	-mo-	em-	je	-pa	ce	le	oi-	bois	la-	mond[e]
8g)J	.	.	.	.	.	.	.	.	.	.	.	.	.
8f	-le	il	m'y	-reux	bras-	n'o-	le	se-	lui	-seaux	par-	-tin	est
8g	que	m'en-	men-	de	-sez-	-se-	sa-	-rait	di-	de	-lent-	aus-	ma-
=2||	=2||	=2||	=2||	=2||	=2||	=2||	=2||	=2||	=2||	=2||	=2||	=2||	=2||
*M2/4	*	*	*	*	*	*	*	*	*	*	*	*	*
8a	moi,	-voie,	-ait,	moi,	-moi.	-rais,	-vait,	moi.	-rait?	bois,	-ils?	-si.	-lin,
*	*pline:1r	*pline:2r	*pline:3r	*pline:4r	*pline:5r	*pline:6r	*pline:7r	*pline:8r	*pline:9r	*pline:10r	*pline:11r	*pline:12r	*pline:13r
8dd	Mon	En-	Le	Il	Ma	Nen-	Car	Fil-	Mais	Ce	Les	Ils	Hé-
8dd	pèr'	-cor	ma-	de-	mi-	-ni,	si	-le	qui,	se-	oi-	parl'nt	-las!
8cc	n'a-	sur	-ri-	-vint	-gno-	Mon-	mon	ba-	la	-rait	-seaux	fran-	que
=3||	=3||	=3||	=3||	=3||	=3||	=3||	=3||	=3||	=3||	=3||	=3||	=3||	=3||
*M3/4	*	*	*	*	*	*	*	*	*	*	*	*	*
4dd	-vait	la	-nier	a-	-nett[e],	-sieur,	pa-	-tue,	belle,	les	des	-çais,	le
(8aL	fil-	mer	qui	-mo-	em-	je	-pa	ce	le	oi-	bois	la-	mond[e]
8g)J	.	.	.	.	.	.	.	.	.	.	.	.	.
8f	-le	il	m'y	-reux	-bras-	n'o-	le	se-	lui	-seaux	par-	-tin	est
8g	que	m'en-	men-	de	-sez-	-se-	sa-	-rait	di-	de	-lent-	aus-	ma-
=4	=4	=4	=4	=4	=4	=4	=4	=4	=4	=4	=4	=4	=4
4a	moi,	-voie,	-ait,	moi,	-moi.	-rais,	-vait.	moi.	-rait?	bois.	-ils?	-si.	-lin.
8r	.	.	.	.	.	.	.	.	.	.	.	.	.
16r	.	.	.	.	.	.	.	.	.	.	.	.	.
*	*pline:2	*pline:3	*pline:4	*pline:5	*pline:6	*pline:7	*pline:8	*pline:9	*pline:10	*pline:11	*pline:12	*pline:13	*pline:14
16a	En-	Le	Il	–Ma	–Nen-	Car	Fil-	–Mais	Ce	–Les	–Ils	Hé-	D'ap-
!!!v11-12: parl'nt = parlent
8a	-cor	ma-	de-	mi-	-ni,	si	-le	qui,	se-	oi-	parl'nt	-las!	-prendr[e]
8b	sur	-ri-	-vint	-gno-	Mon-	mon	bat-	la	-rait	-seaux	fran-	que	aux
=5||	=5||	=5||	=5||	=5||	=5||	=5||	=5||	=5||	=5||	=5||	=5||	=5||	=5||
*M2/4	*	*	*	*	*	*	*	*	*	*	*	*	*
8.cc	la	-nier	a-	-nett[e],	-sieur,	pa-	-tue,	bell[e],	les	des	-çais,	le	oi-
16cc	mer	qui	-mo-	em-	je	-pa	ce	le	oi-	bois	la-	mond[e]	-seaux
8cc	il	m'y	-reux	bras-	n'o-	le	se-	lui	-seaux	par-	-tin	est	le
8cc	m'en-	me-	de	-sez-	-se-	sa-	-rait	di-	de	-lent-	aus-	ma-	la-
=6	=6	=6	=6	=6	=6	=6	=6	=6	=6	=6	=6	=6	=6
2cc	-voie,	-nait,	moi.	-moi.	-rais,	-vait.	moi.	-rait?	bois.	-ils?	-si.	-lin.	-tin.
=7	=7	=7	=7	=7	=7	=7	=7	=7	=7	=7	=7	=7	=7
*>Refrain	*>Refrain	*>Refrain	*>Refrain	*>Refrain	*>Refrain	*>Refrain	*>Refrain	*>Refrain	*>Refrain	*>Refrain	*>Refrain	*>Refrain	*>Refrain
*refrain	*refrain	*	*	*	*	*	*	*	*	*	*	*	*
*	*pline:R1	*	*	*	*	*	*	*	*	*	*	*	*
8a	Mon	.	.	.	.	.	.	.	.	.	.	.	.
8ff	cœur	.	.	.	.	.	.	.	.	.	.	.	.
8ee	est	.	.	.	.	.	.	.	.	.	.	.	.
8dd	en	.	.	.	.	.	.	.	.	.	.	.	.
=8||	=8||	=8||	=8||	=8||	=8||	=8||	=8||	=8||	=8||	=8||	=8||	=8||	=8||
*M3/4	*	*	*	*	*	*	*	*	*	*	*	*	*
4dd	â-	.	.	.	.	.	.	.	.	.	.	.	.
8a	-ge.	.	.	.	.	.	.	.	.	.	.	.	.
8r	.	.	.	.	.	.	.	.	.	.	.	.	.
*	*pline:R2	*	*	*	*	*	*	*	*	*	*	*	*
8.dd	Tant	.	.	.	.	.	.	.	.	.	.	.	.
16dd	d'a-	.	.	.	.	.	.	.	.	.	.	.	.
=9||	=9||	=9||	=9||	=9||	=9||	=9||	=9||	=9||	=9||	=9||	=9||	=9||	=9||
*M2/4	*	*	*	*	*	*	*	*	*	*	*	*	*
8cc	-mants	.	.	.	.	.	.	.	.	.	.	.	.
16cc	qui	.	.	.	.	.	.	.	.	.	.	.	.
16cc	se	.	.	.	.	.	.	.	.	.	.	.	.
8f	font	.	.	.	.	.	.	.	.	.	.	.	.
8f	l'a-	.	.	.	.	.	.	.	.	.	.	.	.
=10	=10	=10	=10	=10	=10	=10	=10	=10	=10	=10	=10	=10	=10
4g	-mour,	.	.	.	.	.	.	.	.	.	.	.	.
*	*pline:R3	*	*	*	*	*	*	*	*	*	*	*	*
8.g	Et	.	.	.	.	.	.	.	.	.	.	.	.
16g	moi	.	.	.	.	.	.	.	.	.	.	.	.
=11	=11	=11	=11	=11	=11	=11	=11	=11	=11	=11	=11	=11	=11
8g	je	.	.	.	.	.	.	.	.	.	.	.	.
8a	m'en	.	.	.	.	.	.	.	.	.	.	.	.
(8fL	pas-	.	.	.	.	.	.	.	.	.	.	.	.
8e)J	.	.	.	.	.	.	.	.	.	.	.	.	.
=12	=12	=12	=12	=12	=12	=12	=12	=12	=12	=12	=12	=12	=12
8d;	-se!	.	.	.	.	.	.	.	.	.	.	.	.
*Xrefrain	*Xrefrain	*	*	*	*	*	*	*	*	*	*	*	*
==	==	==	==	==	==	==	==	==	==	==	==	==	==
*-	*-	*-	*-	*-	*-	*-	*-	*-	*-	*-	*-	*-	*-
!!!EED: Isaac Howie
!!!EEV: 2025/Jul/22
